!!!SOCIAL_FUNCTION:	isleta
!!!PDT:	1957
!!!OTL: No_48_War_Song_(a).krn
!!!LING_GROUP: Keresan
!!!LANG: Tone
!!!REG: Southwest
**kern
*staff1
=1-
*clefF4
*k[b-e-a-]
*M3/4
8E-\L
8E-\J
4E-\
4E-\
=2!|:
*M2/4
16e-\LL
16e-\
16e-\
16B-\JJ
4e-\
=3
16c\LK
8.B-\J
8.B-\L
16f\Jk
=4
*M3/8
8.f\L
16f\K
8e-\J
=5
*M2/4
4B-\
16G\LL
16F\
16F\
16B-\JJ
=6
*M3/8
8.c\L
16c\K
8B-\J
=7
*M2/4
16G\LL
16G\
16F\
16E-\JJ
8.E-\L
16F\Jk
=8
8.G\L
16G\Jk
12G\L
12G\
12F\J
=9
*M3/4
4E-\
4E-\
8E-\
8r
=10
*M2/4
16B-\LL
16B-\
16B-\
16G\JJ
4B-\
=11
16G\LK
8.F\J
8.F\L
16B-\Jk
=12
*M3/8
8.c\L
16c\K
8B-\J
=13
*M2/4
12G\L
12G\
12F\J
8E-\
16r
16F\
=14
8.G\L
16G\Jk
12G\L
12G\
12F\J
=15
*M3/4
4E-\
4E-\
4E-\
=16:|!
*M2/4
16e-\LL
16e-\
16e-\
16B-\JJ
4e-\
=17
16c\LK
8.B-\J
8.B-\L
16e-\Jk
=18
*M3/8
8.f\L
16f\K
8e-\J
=19
*M2/4
4B-\
16G\LL
16F\
16F\
16B-\JJ
=20
*M3/8
8.c\L
16c\K
8B-\J
=21
*M2/4
16G\LL
16G\
16F\
16E-\JJ
8E-\
16r
16F\
=22
8.G\L
16G\Jk
12G\L
12G\
12F\J
=23
*M3/4
4E-\
4E-\
4E-\
==
*-
